images/logo.svg

<svg xmlns="http://www.w3.org/2000/svg" xmlns:xlink="http://www.w3.org/1999/xlink" preserveAspectRatio="none" width="670" height="250"><defs><path d="M315.75 210.25q-.55 0-.95-.15-.4-.1-.75-.4-.3-.25-.55-.7-.3-.45-.6-1.15L306.6 193l-6.1 14.6q-.3.8-.6 1.25-.35.5-.7.85-.35.3-.8.45-.5.1-1.05.15v.6h5.75v-.65h-.2q-.9 0-1.3-.2-.4-.25-.4-.75 0-.25.05-.5.1-.25.35-.85l1.15-2.7h6.2l1.25 3q.2.5.25.65v.4q0 1-1.5 1-.1 0-.15-.05h-.2v.65h7.15v-.65m-7.2-5.95h-5.45l2.75-6.5 2.7 6.5M116.15 42.45q-8.95-3.5-20.5-3.6-2.05 0-4.1.1-2.15.05-4.2.05-2.15.15-4.2.25-2.05.05-4.2.05h-28.3v2.15h16.7v102.9h-16.7v2.15H99.1v-2.15H82.4v-49.7q2.65.55 5.9.9 3.25.35 5.35.35 11.25-.05 20.75-3.35 9.5-3.4 15.2-9.7 5.8-6.4 5.95-15.4-.15-8.6-5.25-15-5.15-6.45-14.15-10m-25-1.45q9.65-.05 15.7 2.3 5.95 2.35 8.65 8.15 2.8 5.8 2.7 16-.05 13.25-6.25 19.8-6.25 6.55-17.35 6.55-2.55 0-5.85-.3t-6.35-.9V41.45q1.25-.15 3.6-.3 2.3-.15 5.15-.15M267 194.85q.3.35.4.9.1.6.1 1.5v10q0 .9-.1 1.5-.1.55-.4.9-.25.3-.75.45-.5.15-1.25.15v.65h7.65v-.65h-.3q-.7-.05-1.15-.2-.4-.15-.65-.5-.3-.35-.4-.9-.05-.55-.05-1.4v-4.65q1.1.3 1.8.35.7.1 1.35.1 2.3 0 3.65-1.3 1.3-1.25 1.3-3.5 0-1.15-.5-2.1-.45-1-1.4-1.6-.4-.25-.85-.45-.45-.2-1-.35-.55-.1-1.25-.15h-8.25v.65q.75 0 1.25.15.5.1.8.45m3.1.3q0-.55 1.55-.55 1.7 0 2.65 1 1 1 1 2.7 0 1.7-.9 2.75-.9 1-2.3 1-.9 0-1.45-.2-.55-.2-.55-.55v-6.15m-89.75-153.7h16.7V39.3H148.6v2.15h16.7v102.9h-16.7v2.15h48.45v-2.15h-16.7V41.45m82.3 0q8.2 0 13.45 2.7 5.2 2.75 8.5 8.05 3.35 5.35 5.75 13.15h1.7V39.3h-86.1v2.15h16.7v102.9h-16.7v2.15h91.85v-33h-1.7q-.4 3.6-2.05 8.75-1.7 5.05-5.15 10.15-3.4 5.05-9 8.45-5.55 3.35-13.8 3.5h-28.4v-54.3h12.15q7.15.05 10.9 3.2 3.8 3.25 5.65 8.35 1.75 5.15 3 11h1.7V65.8h-1.7q-2.05 8.95-4.65 13.75-2.55 4.85-6.6 6.65-4.05 1.8-10.65 1.7h-9.8V41.45h24.95m139.95 153.3q.5-.25 1.1-.25 1.65 0 2.65 1.2 1 1.15 1.15 3.15l.65.05.05-5.7h-.65q-.15.8-.85.8-.3 0-.6-.1l-.35-.15-.3-.05-.3-.1q-.9-.2-1.8-.2-1.05 0-1.95.35-.9.35-1.55.95-.65.65-1.05 1.45-.35.85-.35 1.85t.45 1.9q.15.3.35.6l.5.5q.3.3.65.55.35.25.9.6l3.05 1.85q1.25.75 1.7 1.4.5.65.5 1.55 0 .65-.25 1.2-.25.55-.7.95-.45.4-1.05.65-.65.2-1.35.2-.9 0-1.7-.3-.8-.35-1.35-.9-.55-.6-.9-1.45-.35-.8-.35-1.85h-.7l-.1 5.65h.7q.1-.4.3-.6.2-.15.6-.15.2 0 .6.1l.2.1q.15.05.25.05.05 0 .1.05.6.15 1 .3.4.1.65.15.3.05.55.05h.6q1.2 0 2.2-.35 1-.35 1.7-1t1.1-1.55q.4-.85.4-1.95 0-.75-.2-1.5-.25-.75-.75-1.4-.4-.5-1.05-1t-1.9-1.2l-2.4-1.45q-.9-.5-1.4-1.2-.5-.65-.5-1.35 0-.55.2-1.05.25-.5.65-.85.35-.35.9-.55m-32.35-1.15v.65q.75.05 1.25.15.5.15.75.5.3.3.4.9.15.55.15 1.45v10q0 .9-.1 1.5-.1.55-.4.9-.3.3-.8.45-.5.15-1.25.15v.65h7.7v-.65h-.3q-.7-.05-1.15-.2-.4-.15-.65-.5-.3-.35-.4-.9-.05-.55-.05-1.4v-10q0-.9.1-1.45.1-.55.35-.9.25-.3.7-.45.45-.15 1.1-.2h.3v-.65h-7.7m-33.75 1.25q.3.35.4.9.15.6.15 1.5v10q0 .9-.1 1.5-.1.55-.4.9-.3.3-.8.45-.45.15-1.2.15v.65h7.65v-.65h-.3q-.7-.05-1.15-.25-.45-.15-.7-.45-.25-.35-.35-.9-.1-.55-.1-1.4v-4.35h1.6l5.9 8h4.75v-.65h-.15q-.65-.05-1.1-.2-.45-.1-.9-.4-.4-.25-.85-.75-.45-.45-1-1.2l-3.8-5.3q1.85-.45 2.85-1.6 1-1.15 1-2.7 0-1.4-.7-2.45-.65-1.1-1.9-1.55-.7-.25-1.6-.4-.9-.1-2-.1h-7.2v.65q.75 0 1.25.15.5.1.75.45m3.1.35q0-.7 1.9-.7 1.55 0 2.5 1.05.95 1 .95 2.65 0 1.7-1.2 2.7-1.15 1.05-3.2 1.05-.6 0-.75-.05-.2-.1-.2-.3v-6.4m43.35-149.7q-5.8-4.4-12.6-5.6-6.95-1.2-15.7-1.05-1.75 0-3.6.1-1.75.05-3.6.05-1.75.15-3.6.25-1.85.05-3.6.05h-28.6v2.15h16.7v102.9h-16.7v2.15h48.45v-2.15h-16.7v-54.3h15.1q3.6-.25 8.2.85 4.75 1.05 8.5 5.45t4.6 14.25l1.05 13.75q.6 7.65 2.55 12.8 2 5.15 6.55 7.8 4.5 2.65 12.45 2.65 6.15-.05 8.95-1.3 2.85-1.25 4.25-2.6l-1.3-1.7q-1.8 1.65-3.85 2.35-2.05.85-4.05.85-4.25-.15-6.3-3.2-2.05-2.95-2.85-7.05-.7-3.6-.95-8.9-.3-5.2-.7-10.55-.45-5.45-1.55-9.5-1.5-5.1-5.05-8.4-3.55-3.3-7.95-5.15-4.35-1.9-8.35-2.8-4.05-.85-6.55-1.15v-.3Q374.8 87 380.1 84q5.3-2.95 8-6.7 2.75-3.75 3.6-7.2.95-3.5.9-5.8.05-4.6-2.2-9.6-2.3-5-7.45-9.2m-39.55-4.05q2-.25 4.7-.35 2.75-.1 5.55-.1 5.35-.15 10.5 1.4 5.05 1.6 8.45 6.7 3.3 5.15 3.45 15.5 0 9.2-2.4 14.25-2.35 5.1-6.55 7.15-4.25 2-9.85 1.9H343.4V41.45M488.2 84q5.3-2.95 8-6.7 2.75-3.75 3.6-7.2.95-3.5.9-5.8.05-4.6-2.2-9.6-2.3-5-7.45-9.2-5.8-4.4-12.6-5.6-6.95-1.2-15.7-1.05-1.75 0-3.6.1-1.75.05-3.6.05-1.75.15-3.6.25-1.85.05-3.6.05h-28.6v2.15h16.7v102.9h-16.7v2.15h48.45v-2.15h-16.7v-54.3h15.1q3.6-.25 8.2.85 4.75 1.05 8.5 5.45t4.6 14.25l1.05 13.75q.6 7.65 2.55 12.8 2 5.15 6.55 7.8 4.5 2.65 12.45 2.65 6.15-.05 8.95-1.3 2.85-1.25 4.25-2.6l-1.3-1.7q-1.8 1.65-3.85 2.35-2.05.85-4.05.85-4.25-.15-6.3-3.2-2.05-2.95-2.85-7.05-.7-3.6-.95-8.9-.3-5.2-.7-10.55-.45-5.45-1.55-9.5-1.5-5.1-5.05-8.4-3.55-3.3-7.95-5.15-4.35-1.9-8.35-2.8-4.05-.85-6.55-1.15v-.3Q482.9 87 488.2 84m-36.7-42.55q2-.25 4.7-.35 2.75-.1 5.55-.1 5.35-.15 10.5 1.4 5.05 1.6 8.45 6.7 3.3 5.15 3.45 15.5 0 9.2-2.4 14.25-2.35 5.1-6.55 7.15-4.25 2-9.85 1.9H451.5V41.45m132.7 0q8.2 0 13.45 2.7 5.2 2.75 8.5 8.05 3.35 5.35 5.75 13.15h1.7V39.3h-86.1v2.15h16.7v102.9h-16.7v2.15h91.85v-33h-1.7q-.4 3.6-2.05 8.75-1.7 5.05-5.15 10.15-3.4 5.05-9 8.45-5.55 3.35-13.8 3.5h-28.4v-54.3h12.15q7.15.05 10.9 3.2 3.8 3.25 5.65 8.35 1.75 5.15 3 11h1.7V65.8h-1.7q-2.05 8.95-4.65 13.75-2.55 4.85-6.6 6.65-4.05 1.8-10.65 1.7h-9.8V41.45h24.95z" id="Layer0_0_FILL"/></defs><use xlink:href="#Layer0_0_FILL"/></svg>

<svg xmlns="http://www.w3.org/2000/svg" version="1.1" xmlns:xlink="http://www.w3.org/1999/xlink" preserveAspectRatio="none" x="0px" y="0px" width="670px" height="250px" viewBox="0 0 670 250">
<defs>
<g id="Layer0_0_FILL">
<path fill="#000000" stroke="none" d="
M 315.75 210.25
Q 315.2 210.25 314.8 210.1 314.4 210 314.05 209.7 313.75 209.45 313.5 209 313.2 208.55 312.9 207.85
L 306.6 193 300.5 207.6
Q 300.2 208.4 299.9 208.85 299.55 209.35 299.2 209.7 298.85 210 298.4 210.15 297.9 210.25 297.35 210.3
L 297.35 210.9 303.1 210.9 303.1 210.25 302.9 210.25
Q 302 210.25 301.6 210.05 301.2 209.8 301.2 209.3 301.2 209.05 301.25 208.8 301.35 208.55 301.6 207.95
L 302.75 205.25 308.95 205.25 310.2 208.25
Q 310.4 208.75 310.45 208.9 310.45 209.05 310.45 209.3 310.45 210.3 308.95 210.3 308.85 210.3 308.8 210.25 308.7 210.25 308.6 210.25
L 308.6 210.9 315.75 210.9 315.75 210.25
M 308.55 204.3
L 303.1 204.3 305.85 197.8 308.55 204.3
M 116.15 42.45
Q 107.2 38.95 95.65 38.85 93.6 38.85 91.55 38.95 89.4 39 87.35 39 85.2 39.15 83.15 39.25 81.1 39.3 78.95 39.3
L 50.65 39.3 50.65 41.45 67.35 41.45 67.35 144.35 50.65 144.35 50.65 146.5 99.1 146.5 99.1 144.35 82.4 144.35 82.4 94.65
Q 85.05 95.2 88.3 95.55 91.55 95.9 93.65 95.9 104.9 95.85 114.4 92.55 123.9 89.15 129.6 82.85 135.4 76.45 135.55 67.45 135.4 58.85 130.3 52.45 125.15 46 116.15 42.45
M 91.15 41
Q 100.8 40.95 106.85 43.3 112.8 45.65 115.5 51.45 118.3 57.25 118.2 67.45 118.15 80.7 111.95 87.25 105.7 93.8 94.6 93.8 92.05 93.8 88.75 93.5 85.45 93.2 82.4 92.6
L 82.4 41.45
Q 83.65 41.3 86 41.15 88.3 41 91.15 41
M 267 194.85
Q 267.3 195.2 267.4 195.75 267.5 196.35 267.5 197.25
L 267.5 207.25
Q 267.5 208.15 267.4 208.75 267.3 209.3 267 209.65 266.75 209.95 266.25 210.1 265.75 210.25 265 210.25
L 265 210.9 272.65 210.9 272.65 210.25
Q 272.55 210.25 272.45 210.25 272.4 210.25 272.35 210.25 271.65 210.2 271.2 210.05 270.8 209.9 270.55 209.55 270.25 209.2 270.15 208.65 270.1 208.1 270.1 207.25
L 270.1 202.6
Q 271.2 202.9 271.9 202.95 272.6 203.05 273.25 203.05 275.55 203.05 276.9 201.75 278.2 200.5 278.2 198.25 278.2 197.1 277.7 196.15 277.25 195.15 276.3 194.55 275.9 194.3 275.45 194.1 275 193.9 274.45 193.75 273.9 193.65 273.2 193.6 272.45 193.6 271.45 193.6
L 264.95 193.6 264.95 194.25
Q 265.7 194.25 266.2 194.4 266.7 194.5 267 194.85
M 270.1 195.15
Q 270.1 194.6 271.65 194.6 273.35 194.6 274.3 195.6 275.3 196.6 275.3 198.3 275.3 200 274.4 201.05 273.5 202.05 272.1 202.05 271.2 202.05 270.65 201.85 270.1 201.65 270.1 201.3
L 270.1 195.15
M 180.35 41.45
L 197.05 41.45 197.05 39.3 148.6 39.3 148.6 41.45 165.3 41.45 165.3 144.35 148.6 144.35 148.6 146.5 197.05 146.5 197.05 144.35 180.35 144.35 180.35 41.45
M 262.65 41.45
Q 270.85 41.45 276.1 44.15 281.3 46.9 284.6 52.2 287.95 57.55 290.35 65.35
L 292.05 65.35 292.05 39.3 205.95 39.3 205.95 41.45 222.65 41.45 222.65 144.35 205.95 144.35 205.95 146.5 297.8 146.5 297.8 113.5 296.1 113.5
Q 295.7 117.1 294.05 122.25 292.35 127.3 288.9 132.4 285.5 137.45 279.9 140.85 274.35 144.2 266.1 144.35
L 237.7 144.35 237.7 90.05 249.85 90.05
Q 257 90.1 260.75 93.25 264.55 96.5 266.4 101.6 268.15 106.75 269.4 112.6
L 271.1 112.6 271.1 65.8 269.4 65.8
Q 267.35 74.75 264.75 79.55 262.2 84.4 258.15 86.2 254.1 88 247.5 87.9
L 237.7 87.9 237.7 41.45 262.65 41.45
M 402.6 194.75
Q 403.1 194.5 403.7 194.5 405.35 194.5 406.35 195.7 407.35 196.85 407.5 198.85
L 408.15 198.9 408.2 193.2 407.55 193.2
Q 407.4 194 406.7 194 406.4 194 406.1 193.9
L 405.75 193.75 405.45 193.7 405.15 193.6
Q 404.25 193.4 403.35 193.4 402.3 193.4 401.4 193.75 400.5 194.1 399.85 194.7 399.2 195.35 398.8 196.15 398.45 197 398.45 198 398.45 199 398.9 199.9 399.05 200.2 399.25 200.5 399.5 200.75 399.75 201 400.05 201.3 400.4 201.55 400.75 201.8 401.3 202.15
L 404.35 204
Q 405.6 204.75 406.05 205.4 406.55 206.05 406.55 206.95 406.55 207.6 406.3 208.15 406.05 208.7 405.6 209.1 405.15 209.5 404.55 209.75 403.9 209.95 403.2 209.95 402.3 209.95 401.5 209.65 400.7 209.3 400.15 208.75 399.6 208.15 399.25 207.3 398.9 206.5 398.9 205.45
L 398.2 205.45 398.1 211.1 398.8 211.1
Q 398.9 210.7 399.1 210.5 399.3 210.35 399.7 210.35 399.9 210.35 400.3 210.45
L 400.5 210.55
Q 400.65 210.6 400.75 210.6 400.8 210.6 400.85 210.65 401.45 210.8 401.85 210.95 402.25 211.05 402.5 211.1 402.8 211.15 403.05 211.15 403.3 211.15 403.65 211.15 404.85 211.15 405.85 210.8 406.85 210.45 407.55 209.8 408.25 209.15 408.65 208.25 409.05 207.4 409.05 206.3 409.05 205.55 408.85 204.8 408.6 204.05 408.1 203.4 407.7 202.9 407.05 202.4 406.4 201.9 405.15 201.2
L 402.75 199.75
Q 401.85 199.25 401.35 198.55 400.85 197.9 400.85 197.2 400.85 196.65 401.05 196.15 401.3 195.65 401.7 195.3 402.05 194.95 402.6 194.75
M 370.25 193.6
L 370.25 194.25
Q 371 194.3 371.5 194.4 372 194.55 372.25 194.9 372.55 195.2 372.65 195.8 372.8 196.35 372.8 197.25
L 372.8 207.25
Q 372.8 208.15 372.7 208.75 372.6 209.3 372.3 209.65 372 209.95 371.5 210.1 371 210.25 370.25 210.25
L 370.25 210.9 377.95 210.9 377.95 210.25
Q 377.85 210.25 377.8 210.25 377.7 210.25 377.65 210.25 376.95 210.2 376.5 210.05 376.1 209.9 375.85 209.55 375.55 209.2 375.45 208.65 375.4 208.1 375.4 207.25
L 375.4 197.25
Q 375.4 196.35 375.5 195.8 375.6 195.25 375.85 194.9 376.1 194.6 376.55 194.45 377 194.3 377.65 194.25
L 377.95 194.25 377.95 193.6 370.25 193.6
M 336.5 194.85
Q 336.8 195.2 336.9 195.75 337.05 196.35 337.05 197.25
L 337.05 207.25
Q 337.05 208.15 336.95 208.75 336.85 209.3 336.55 209.65 336.25 209.95 335.75 210.1 335.3 210.25 334.55 210.25
L 334.55 210.9 342.2 210.9 342.2 210.25
Q 342.1 210.25 342 210.25 341.95 210.25 341.9 210.25 341.2 210.2 340.75 210 340.3 209.85 340.05 209.55 339.8 209.2 339.7 208.65 339.6 208.1 339.6 207.25
L 339.6 202.9
Q 339.9 202.9 340.1 202.9 340.25 202.9 340.4 202.9 340.5 202.9 340.7 202.9 340.95 202.9 341.2 202.9
L 347.1 210.9 351.85 210.9 351.85 210.25 351.7 210.25
Q 351.05 210.2 350.6 210.05 350.15 209.95 349.7 209.65 349.3 209.4 348.85 208.9 348.4 208.45 347.85 207.7
L 344.05 202.4
Q 345.9 201.95 346.9 200.8 347.9 199.65 347.9 198.1 347.9 196.7 347.2 195.65 346.55 194.55 345.3 194.1 344.6 193.85 343.7 193.7 342.8 193.6 341.7 193.6
L 334.5 193.6 334.5 194.25
Q 335.25 194.25 335.75 194.4 336.25 194.5 336.5 194.85
M 339.6 195.2
Q 339.6 194.5 341.5 194.5 343.05 194.5 344 195.55 344.95 196.55 344.95 198.2 344.95 199.9 343.75 200.9 342.6 201.95 340.55 201.95 339.95 201.95 339.8 201.9 339.6 201.8 339.6 201.6
L 339.6 195.2
M 382.95 45.5
Q 377.15 41.1 370.35 39.9 363.4 38.7 354.65 38.85 352.9 38.85 351.05 38.95 349.3 39 347.45 39 345.7 39.15 343.85 39.25 342 39.3 340.25 39.3
L 311.65 39.3 311.65 41.45 328.35 41.45 328.35 144.35 311.65 144.35 311.65 146.5 360.1 146.5 360.1 144.35 343.4 144.35 343.4 90.05 358.5 90.05
Q 362.1 89.8 366.7 90.9 371.45 91.95 375.2 96.35 378.95 100.75 379.8 110.6
L 380.85 124.35
Q 381.45 132 383.4 137.15 385.4 142.3 389.95 144.95 394.45 147.6 402.4 147.6 408.55 147.55 411.35 146.3 414.2 145.05 415.6 143.7
L 414.3 142
Q 412.5 143.65 410.45 144.35 408.4 145.2 406.4 145.2 402.15 145.05 400.1 142 398.05 139.05 397.25 134.95 396.55 131.35 396.3 126.05 396 120.85 395.6 115.5 395.15 110.05 394.05 106 392.55 100.9 389 97.6 385.45 94.3 381.05 92.45 376.7 90.55 372.7 89.65 368.65 88.8 366.15 88.5
L 366.15 88.2
Q 374.8 87 380.1 84 385.4 81.05 388.1 77.3 390.85 73.55 391.7 70.1 392.65 66.6 392.6 64.3 392.65 59.7 390.4 54.7 388.1 49.7 382.95 45.5
M 343.4 41.45
Q 345.4 41.2 348.1 41.1 350.85 41 353.65 41 359 40.85 364.15 42.4 369.2 44 372.6 49.1 375.9 54.25 376.05 64.6 376.05 73.8 373.65 78.85 371.3 83.95 367.1 86 362.85 88 357.25 87.9
L 343.4 87.9 343.4 41.45
M 488.2 84
Q 493.5 81.05 496.2 77.3 498.95 73.55 499.8 70.1 500.75 66.6 500.7 64.3 500.75 59.7 498.5 54.7 496.2 49.7 491.05 45.5 485.25 41.1 478.45 39.9 471.5 38.7 462.75 38.85 461 38.85 459.15 38.95 457.4 39 455.55 39 453.8 39.15 451.95 39.25 450.1 39.3 448.35 39.3
L 419.75 39.3 419.75 41.45 436.45 41.45 436.45 144.35 419.75 144.35 419.75 146.5 468.2 146.5 468.2 144.35 451.5 144.35 451.5 90.05 466.6 90.05
Q 470.2 89.8 474.8 90.9 479.55 91.95 483.3 96.35 487.05 100.75 487.9 110.6
L 488.95 124.35
Q 489.55 132 491.5 137.15 493.5 142.3 498.05 144.95 502.55 147.6 510.5 147.6 516.65 147.55 519.45 146.3 522.3 145.05 523.7 143.7
L 522.4 142
Q 520.6 143.65 518.55 144.35 516.5 145.2 514.5 145.2 510.25 145.05 508.2 142 506.15 139.05 505.35 134.95 504.65 131.35 504.4 126.05 504.1 120.85 503.7 115.5 503.25 110.05 502.15 106 500.65 100.9 497.1 97.6 493.55 94.3 489.15 92.45 484.8 90.55 480.8 89.65 476.75 88.8 474.25 88.5
L 474.25 88.2
Q 482.9 87 488.2 84
M 451.5 41.45
Q 453.5 41.2 456.2 41.1 458.95 41 461.75 41 467.1 40.85 472.25 42.4 477.3 44 480.7 49.1 484 54.25 484.15 64.6 484.15 73.8 481.75 78.85 479.4 83.95 475.2 86 470.95 88 465.35 87.9
L 451.5 87.9 451.5 41.45
M 584.2 41.45
Q 592.4 41.45 597.65 44.15 602.85 46.9 606.15 52.2 609.5 57.55 611.9 65.35
L 613.6 65.35 613.6 39.3 527.5 39.3 527.5 41.45 544.2 41.45 544.2 144.35 527.5 144.35 527.5 146.5 619.35 146.5 619.35 113.5 617.65 113.5
Q 617.25 117.1 615.6 122.25 613.9 127.3 610.45 132.4 607.05 137.45 601.45 140.85 595.9 144.2 587.65 144.35
L 559.25 144.35 559.25 90.05 571.4 90.05
Q 578.55 90.1 582.3 93.25 586.1 96.5 587.95 101.6 589.7 106.75 590.95 112.6
L 592.65 112.6 592.65 65.8 590.95 65.8
Q 588.9 74.75 586.3 79.55 583.75 84.4 579.7 86.2 575.65 88 569.05 87.9
L 559.25 87.9 559.25 41.45 584.2 41.45 Z"/>
</g>
</defs>

<g transform="matrix( 1, 0, 0, 1, 0,0) ">
<use xlink:href="#Layer0_0_FILL"/>
</g>
</svg>
